X: 79
T:Doc Boyd
% Nottingham Music Database
S:Kevin Briggs, via EF
Y:AB
M:6/8
K:C
P:A
G|"C"cBc GEG|"C"cea g2e|"F"faf "Dm"A2d|"G"BdB "G7"GAB|
"C"cBc GEG|"C"cea g2e|"G7"fdB GAB|"C"c3 c2:|
P:B
g|"F"a2a ag^f|"C"g2g g2e|"G7"f2f fed|"C"g2e "C7"c2g|
"F"a2a ag^f|"C"g2g g2e|"G7"fdB GAB|"C"c3 c2:|


